X:1
T:Prince Charlie
M:2/4
L:1/8
K:C
E-F| GG cd| ed c G/2G/2| ce e e/2c/2| ee| d/2 c G/2| c c/2d/2 ec| ee c3/2 E/2|\
 G3/2 E/2 G G/2G/2| FE| DC| ED C2| EF GE| F3/2 D/2 G G/2F/2| EC| C2||\

